;FLAVOR:Marlin
;TIME:9621
;Filament used: 4.34637m
;Layer height: 0.12
;MINX:67.075
;MINY:77.037
;MINZ:0.144
;MAXX:162.735
;MAXY:157.968
;MAXZ:12.114
;Generated with Cura_SteamEngine 5.2.1
M140 S50
M105
M190 S50
M104 S200
M105
M109 S200
M82 ;absolute extrusion mode
; Ender 3 Custom Start G-code
G92 E0 ; Reset Extruder
G28 ; Home all axes
G1 Z2.0 F3000 ; Move Z Axis up little to prevent scratching of Heat Bed
G1 X0.1 Y20 Z0.3 F5000.0 ; Move to start position
G1 X0.1 Y200.0 Z0.3 F1500.0 E15 ; Draw the first line
G1 X0.4 Y200.0 Z0.3 F5000.0 ; Move to side a little
G1 X0.4 Y20 Z0.3 F1500.0 E30 ; Draw the second line
G92 E0 ; Reset Extruder
G1 Z2.0 F3000 ; Move Z Axis up little to prevent scratching of Heat Bed
G1 X5 Y20 Z0.3 F5000.0 ; Move over to prevent blob squish
G92 E0
G92 E0
G1 F2700 E-5
;LAYER_COUNT:95
;LAYER:-6
M107
G0 F9000 X75.329 Y101.883 Z0.144
;TYPE:SUPPORT-INTERFACE
G1 F2700 E0
G1 F1125 X74.576 Y102.54 E0.04786
G1 X73.868 Y103.238 E0.09548
G1 X73.166 Y104.039 E0.14649
G1 X72.39 Y104.996 E0.2055
G1 X71.941 Y105.584 E0.24094
G1 X71.393 Y106.389 E0.28758
G1 X70.829 Y107.367 E0.34165
G1 X70.3 Y108.361 E0.39558
G1 X70.008 Y108.946 E0.42689
G1 X69.601 Y109.877 E0.47556
G1 X69.276 Y110.802 E0.52251
G1 X68.914 Y111.953 E0.5803
G1 X68.66 Y112.88 E0.62634
G1 X68.461 Y113.824 E0.67254
G1 X68.324 Y114.839 E0.7216
G1 X68.209 Y115.979 E0.77647
G1 X68.144 Y116.936 E0.82242
G1 X68.139 Y117.923 E0.86969
G1 X68.211 Y119.013 E0.92201
G1 X68.327 Y120.135 E0.97603
G1 X68.395 Y120.685 E1.00257
G1 X68.616 Y121.879 E1.06073
G1 X68.853 Y122.787 E1.10568
G1 X69.192 Y123.932 E1.16287
G1 X69.445 Y124.702 E1.20169
G1 X69.872 Y125.765 E1.25655
G1 X70.361 Y126.756 E1.30948
G1 X70.825 Y127.619 E1.35641
G1 X71.153 Y128.204 E1.38853
G1 X71.717 Y129.09 E1.43883
G1 X72.391 Y129.997 E1.49296
G1 X73.109 Y130.889 E1.5478
G1 X73.696 Y131.575 E1.59104
G1 X74.394 Y132.289 E1.63886
G1 X75.226 Y133.031 E1.69226
G1 X76.083 Y133.735 E1.74538
G1 X76.678 Y134.199 E1.78151
G1 X77.601 Y134.832 E1.83512
G1 X78.527 Y135.368 E1.88636
G1 X79.582 Y135.931 E1.94364
G1 X80.115 Y136.199 E1.97221
G1 X81.254 Y136.686 E2.03154
G1 X82.119 Y136.985 E2.07537
G1 X83.317 Y137.351 E2.13537
G1 X84.134 Y137.577 E2.17597
G1 X85.205 Y137.798 E2.22834
G1 X86.54 Y137.98 E2.29287
G1 X87.216 Y138.134 E2.32608
G1 X87.83 Y138.363 E2.35747
G1 X88.431 Y138.673 E2.38985
G1 X89.014 Y139.074 E2.42374
G1 X89.498 Y139.508 E2.45488
G1 X89.955 Y140.035 E2.48829
G1 X90.382 Y140.594 E2.52198
G1 X93.387 Y144.255 E2.74882
G1 X93.951 Y144.905 E2.79004
G1 X94.707 Y145.672 E2.84162
G1 X95.425 Y146.306 E2.8875
G1 X99.212 Y149.415 E3.12217
G1 X99.739 Y149.828 E3.15423
G1 X100.602 Y150.424 E3.20447
G1 X101.577 Y150.999 E3.25868
G1 X105.88 Y153.3 E3.49239
G1 X106.617 Y153.665 E3.53178
G1 X107.528 Y154.054 E3.57922
G1 X108.595 Y154.417 E3.6332
G1 X113.18 Y155.807 E3.86267
G1 X113.98 Y156.023 E3.90235
G1 X114.934 Y156.225 E3.94906
G1 X116.055 Y156.375 E4.00323
G1 X120.776 Y156.84 E4.23043
G1 X121.483 Y156.893 E4.26439
G1 X122.629 Y156.91 E4.31928
G1 X123.746 Y156.84 E4.37288
G1 X128.505 Y156.37 E4.60192
G1 X129.341 Y156.262 E4.6423
G1 X130.321 Y156.078 E4.69005
G1 X131.279 Y155.825 E4.73751
G1 X135.949 Y154.412 E4.97119
G1 X136.617 Y154.193 E5.00486
G1 X137.688 Y153.767 E5.06006
G1 X138.676 Y153.283 E5.11276
G1 X142.926 Y151.014 E5.3435
G1 X143.632 Y150.607 E5.38253
G1 X144.532 Y150.013 E5.43418
G1 X145.291 Y149.435 E5.47987
G1 X149.06 Y146.343 E5.71336
G1 X149.563 Y145.907 E5.74524
G1 X150.385 Y145.113 E5.79998
G1 X151.071 Y144.336 E5.84962
G1 X154.183 Y140.549 E6.08438
G1 X154.675 Y139.911 E6.12297
G1 X155.189 Y139.162 E6.16647
G1 X155.769 Y138.176 E6.22126
G1 X158.065 Y133.882 E6.45448
G1 X158.429 Y133.147 E6.49376
G1 X158.819 Y132.236 E6.54122
G1 X159.188 Y131.146 E6.59634
G1 X160.571 Y126.584 E6.82465
G1 X160.787 Y125.784 E6.86434
G1 X160.989 Y124.83 E6.91104
G1 X161.139 Y123.709 E6.96521
G1 X161.609 Y118.938 E7.19482
G1 X161.664 Y118.121 E7.23404
G1 X161.667 Y117.623 E7.25789
G1 X161.67 Y117.065 E7.28462
G1 X161.609 Y116.061 E7.33279
G1 X161.133 Y111.232 E7.5652
G1 X161.048 Y110.55 E7.59811
G1 X160.846 Y109.456 E7.6514
G1 X160.557 Y108.361 E7.70564
G1 X159.164 Y103.77 E7.93542
G1 X158.956 Y103.139 E7.96724
G1 X158.537 Y102.082 E8.0217
G1 X158.04 Y101.072 E8.07561
G1 X155.791 Y96.861 E8.30426
G1 X155.382 Y96.146 E8.34371
G1 X154.83 Y95.298 E8.39217
G1 X154.147 Y94.404 E8.44605
G1 X151.057 Y90.643 E8.67918
G1 X150.576 Y90.094 E8.71414
G1 X149.819 Y89.326 E8.76579
G1 X149.03 Y88.631 E8.81615
G1 X145.317 Y85.585 E9.04617
G1 X144.781 Y85.167 E9.07872
G1 X143.926 Y84.576 E9.1285
G1 X142.898 Y83.971 E9.18563
G1 X138.648 Y81.7 E9.41642
G1 X137.91 Y81.336 E9.45583
G1 X137.012 Y80.952 E9.50261
G1 X136.026 Y80.612 E9.55256
G1 X131.349 Y79.194 E9.78663
G1 X130.547 Y78.978 E9.82641
G1 X129.597 Y78.776 E9.87293
G1 X128.474 Y78.626 E9.92719
G1 X123.722 Y78.158 E10.15589
G1 X122.886 Y78.101 E10.19602
G1 X121.832 Y78.095 E10.2465
G1 X120.835 Y78.156 E10.29435
G1 X115.999 Y78.632 E10.52708
G1 X115.325 Y78.716 E10.55961
G1 X114.214 Y78.921 E10.61372
G1 X113.25 Y79.175 E10.66147
G1 X108.58 Y80.588 E10.89515
G1 X107.913 Y80.807 E10.92877
G1 X106.847 Y81.23 E10.9837
G1 X105.854 Y81.717 E11.03667
G1 X101.623 Y83.976 E11.26639
G1 X100.898 Y84.393 E11.30645
G1 X99.999 Y84.986 E11.35803
G1 X99.249 Y85.557 E11.40317
G1 X95.504 Y88.628 E11.63514
G1 X94.851 Y89.197 E11.67662
G1 X94.139 Y89.894 E11.72434
G1 X93.479 Y90.639 E11.77201
G1 X90.353 Y94.441 E12.00775
G1 X89.881 Y95.046 E12.0445
G1 X89.253 Y95.714 E12.08841
G1 X88.724 Y96.133 E12.12073
G1 X88.131 Y96.491 E12.15391
G1 X87.497 Y96.769 E12.18707
G1 X86.871 Y96.956 E12.21836
G1 X86.226 Y97.064 E12.24968
G1 X85.375 Y97.175 E12.29078
G1 X84.384 Y97.365 E12.33911
G1 X83.299 Y97.653 E12.39288
G1 X82.149 Y98.006 E12.45049
G1 X81.602 Y98.187 E12.47809
G1 X80.589 Y98.586 E12.53023
G1 X79.582 Y99.071 E12.58376
G1 X78.541 Y99.623 E12.6402
G1 X77.975 Y99.942 E12.67132
G1 X77.016 Y100.559 E12.72593
G1 X76.121 Y101.238 E12.77974
G1 X75.329 Y101.883 E12.82866
G0 F9000 X75.292 Y102.445
G1 F1125 X128.777 Y155.93 E16.45137
G0 F9000 X130.678 Y155.568
G1 F1125 X76.535 Y101.425 E20.11865
G0 F9000 X77.863 Y100.49
G1 F1125 X132.429 Y155.057 E23.81461
G0 F9000 X134.167 Y154.531
G1 F1125 X79.305 Y99.67 E27.53055
G0 F9000 X80.822 Y98.924
G1 F1125 X135.903 Y154.005 E31.26136
G0 F9000 X137.549 Y153.388
G1 F1125 X82.482 Y98.321 E34.99123
G0 F9000 X84.239 Y97.816
G1 F1125 X139.051 Y152.627 E38.70378
G0 F9000 X140.526 Y151.84
G1 F1125 X86.161 Y97.475 E42.3861
G0 F9000 X87.954 Y97.005
G1 F1125 X142.001 Y151.052 E46.04687
G0 F9000 X143.454 Y150.243
G1 F1125 X89.354 Y96.143 E49.71124
G0 F9000 X90.446 Y94.971
G1 F1125 X144.788 Y149.314 E53.39203
G0 F9000 X146.039 Y148.302
G1 F1125 X91.46 Y93.722 E57.08887
G0 F9000 X92.481 Y92.481
G1 F1125 X147.282 Y147.282 E60.80072
G0 F9000 X148.524 Y146.262
G1 F1125 X93.501 Y91.238 E64.52764
G0 F9000 X94.563 Y90.038
G1 F1125 X149.722 Y145.196 E68.2637
G0 F9000 X150.811 Y144.022
G1 F1125 X95.74 Y88.952 E71.9938
G0 F9000 X96.983 Y87.932
G1 F1125 X151.831 Y142.78 E75.70883
G0 F9000 X152.852 Y141.538
G1 F1125 X98.226 Y86.912 E79.40882
G0 F9000 X99.469 Y85.892
G1 F1125 X153.872 Y140.296 E83.09374
G0 F9000 X154.824 Y138.985
G1 F1125 X100.786 Y84.946 E86.75394
G0 F9000 X102.215 Y84.113
G1 F1125 X155.65 Y137.548 E90.37327
G0 F9000 X156.438 Y136.074
G1 F1125 X103.69 Y83.325 E93.94609
G0 F9000 X105.165 Y82.538
G1 F1125 X157.227 Y134.599 E97.47238
G0 F9000 X158 Y133.11
G1 F1125 X106.657 Y81.767 E100.95001
G0 F9000 X108.265 Y81.112
G1 F1125 X158.647 Y131.494 E104.36254
G0 F9000 X159.186 Y129.771
G1 F1125 X109.993 Y80.578 E107.69454
G0 F9000 X111.731 Y80.052
G1 F1125 X159.712 Y128.034 E110.94448
G0 F9000 X160.234 Y126.293
G1 F1125 X113.471 Y79.53 E114.11188
G0 F9000 X115.326 Y79.122
G1 F1125 X160.638 Y124.434 E117.18101
G0 F9000 X160.866 Y122.399
G1 F1125 X117.366 Y78.899 E120.1274
G0 F9000 X119.426 Y78.696
G1 F1125 X161.069 Y120.339 E122.94802
G0 F9000 X161.253 Y118.261
G1 F1125 X121.507 Y78.515 E125.64014
G0 F9000 X123.825 Y78.57
G1 F1125 X161.194 Y115.939 E128.17126
G0 F9000 X160.946 Y113.429
G1 F1125 X126.335 Y78.817 E130.51561
G0 F9000 X128.861 Y79.081
G1 F1125 X160.689 Y110.908 E132.67139
G0 F9000 X160.022 Y107.979
G1 F1125 X131.788 Y79.745 E134.58377
G0 F9000 X135.036 Y80.73
G1 F1125 X159.037 Y104.731 E136.20943
G0 F9000 X157.523 Y100.955
G1 F1125 X138.807 Y82.239 E137.47712
G1 F2700 E132.47712
G0 F9000 X139.496 Y80.946
G0 X144.335 Y83.575
G0 X143.82 Y84.989
G1 F2700 E137.47712
G1 F1125 X154.767 Y95.936 E138.2186
G1 F2700 E133.2186
G0 F9000 X155.995 Y95.137
G0 X156.726 Y96.349
G0 X159.468 Y101.565
G0 X160.179 Y103.449
G0 X161.853 Y109.097
G0 X162.191 Y111.115
G0 X162.735 Y117.026
G0 X162.67 Y119.03
G0 X162.053 Y124.912
G0 X161.595 Y126.88
G0 X159.84 Y132.534
G0 X159.01 Y134.374
G0 X156.19 Y139.57
G0 X154.985 Y141.25
G0 X151.226 Y145.771
G0 X149.744 Y147.159
G0 X145.157 Y150.877
G0 X143.443 Y151.945
G0 X138.211 Y154.698
G0 X136.267 Y155.428
G0 X130.656 Y157.091
G0 X129.01 Y157.363
G0 X126.87 Y157.601
G0 X126.726 Y156.142
G1 F2700 E138.2186
G1 F1125 X74.129 Y103.545 E141.78116
G0 F9000 X73.089 Y104.767
G1 F1125 X124.667 Y156.345 E145.2747
G0 F9000 X122.567 Y156.508
G1 F1125 X72.107 Y106.049 E148.69249
G0 F9000 X71.243 Y107.447
G1 F1125 X120.173 Y156.377 E152.00667
G0 F9000 X117.663 Y156.13
G1 F1125 X70.462 Y108.929 E155.20375
G0 F9000 X69.796 Y110.525
G1 F1125 X115.115 Y155.844 E158.27335
G0 F9000 X112.054 Y155.046
G1 F1125 X69.249 Y112.241 E161.17266
G0 F9000 X68.829 Y114.083
G1 F1125 X108.808 Y154.063 E163.8806
G1 F2700 E158.8806
G0 F9000 X108.154 Y155.394
G0 X106.377 Y154.712
G0 X104.002 Y153.504
G0 X104.692 Y152.21
G1 F2700 E163.8806
G1 F1125 X68.599 Y116.117 E166.3253
G0 F9000 X68.567 Y118.347
G1 F1125 X88.459 Y138.239 E167.67265
G0 F9000 X85.373 Y137.416
G1 F1125 X68.836 Y120.879 E168.79275
G0 F9000 X69.606 Y123.912
G1 F1125 X82.322 Y136.627 E169.65401
G1 F2700 E164.65401
G0 F9000 X81.786 Y137.995
G0 X80.025 Y137.315
G0 X78.003 Y136.295
G0 X78.073 Y134.641
G1 F2700 E169.65401
G1 F1125 X71.615 Y128.183 E170.09143
G1 F2700 E165.09143
G0 F9000 X70.379 Y128.974
G0 X71.549 Y130.652
G0 X72.982 Y132.369
G0 X74.598 Y133.895
G0 X76.161 Y135.139
G0 X78.036 Y136.315
G0 X79.051 Y136.837
G0 X90.166 Y142.009
G0 X91.298 Y141.078
G1 F2700 E170.09143
G1 F1125 X98.678 Y148.459 E170.59134
G1 F2700 E165.59134
G0 F300 X98.678 Y148.459 Z0.324
G0 F9000 X97.748 Y149.593
G0 X99.231 Y150.774
G0 X101.117 Y151.963
G0 X106.179 Y154.636
G0 X108.273 Y155.433
G0 X113.741 Y157.062
G0 X115.935 Y157.433
G0 X121.618 Y157.964
G0 X123.839 Y157.901
G0 X129.517 Y157.313
G0 X131.7 Y156.814
G0 X137.14 Y155.136
G0 X139.166 Y154.23
G0 X144.197 Y151.51
G0 X145.923 Y150.293
G0 X145.035 Y149.129
;TIME_ELAPSED:206.380635
;LAYER:-5
;TYPE:SUPPORT
G1 F2700 E170.59134
G1 F1125 X148.811 Y146.029 E170.88382
G1 X149.311 Y145.597 E170.92338
G1 X150.039 Y144.893 E170.98401
G1 X150.767 Y144.076 E171.04953
G1 X153.917 Y140.239 E171.34673
G1 X144.999 Y149.157 E172.10179
G1 X144.307 Y149.683 E172.15383
G1 X143.415 Y150.271 E172.21779
G1 X142.743 Y150.656 E172.26416
G1 X141.33 Y151.411 E172.36007
G1 X156.176 Y136.565 E173.61703
G1 X157.788 Y133.539 E173.82229
G1 X138.306 Y153.021 E175.47176
G1 X137.514 Y153.406 E175.52448
G1 X136.487 Y153.814 E175.59064
G1 X135.908 Y154.005 E175.62714
G1 X158.768 Y131.145 E177.56262
G1 X159.384 Y129.114 E177.68968
G1 X133.877 Y154.621 E179.84927
G1 X131.847 Y155.238 E179.97629
G1 X160.001 Y127.084 E182.35999
G1 X160.19 Y126.462 E182.39891
G1 X160.357 Y125.862 E182.4362
G1 X160.508 Y125.162 E182.47907
G1 X129.924 Y155.746 E185.06851
G1 X129.275 Y155.868 E185.10804
G1 X128.264 Y155.991 E185.16902
G1 X160.757 Y123.499 E187.92004
G1 X160.912 Y121.929 E188.01449
G1 X126.696 Y156.146 E190.91148
G1 X125.128 Y156.3 E191.00581
G1 X161.066 Y120.361 E194.04859
G1 X161.218 Y118.796 E194.14273
G1 X123.562 Y156.451 E197.33089
G1 X122.55 Y156.508 E197.39157
G1 X122.097 Y156.502 E197.41869
G1 X161.282 Y117.317 E200.73635
G1 X161.199 Y115.986 E200.81619
G1 X120.749 Y156.436 E204.24095
G1 X119.462 Y156.309 E204.31837
G1 X161.072 Y114.699 E207.84135
G1 X160.945 Y113.412 E207.91877
G1 X118.175 Y156.182 E211.53996
G1 X116.887 Y156.055 E211.61744
G1 X160.818 Y112.125 E215.33688
G1 X160.733 Y111.266 E215.38856
G1 X160.68 Y110.848 E215.41378
G1 X115.615 Y155.913 E219.22928
G1 X115.003 Y155.83 E219.26625
G1 X114.411 Y155.703 E219.3025
G1 X160.48 Y109.634 E223.203
G1 X160.183 Y108.517 E223.2722
G1 X113.279 Y155.42 E227.24335
G1 X112.195 Y155.091 E227.31117
G1 X159.854 Y107.431 E231.34634
G1 X159.526 Y106.346 E231.4142
G1 X111.11 Y154.761 E235.51337
G1 X110.025 Y154.432 E235.58124
G1 X159.196 Y105.261 E239.74438
G1 X158.867 Y104.175 E239.81231
G1 X108.941 Y154.102 E244.03941
G1 X108.605 Y154 E244.06044
G1 X107.879 Y153.75 E244.10641
G1 X158.514 Y103.114 E248.39354
G1 X158.113 Y102.101 E248.45876
G1 X106.87 Y153.344 E252.79733
G1 X105.928 Y152.872 E252.8604
G1 X157.636 Y101.164 E257.23834
G1 X157.143 Y100.242 E257.30093
G1 X105.006 Y152.38 E261.71523
G1 X104.085 Y151.887 E261.77777
G1 X156.651 Y99.32 E266.22839
G1 X156.159 Y98.398 E266.29096
G1 X103.163 Y151.395 E270.77799
G1 X102.241 Y150.902 E270.84058
G1 X155.667 Y97.476 E275.36397
G1 X155.436 Y97.044 E275.3933
G1 X155.162 Y96.567 E275.42623
G1 X101.336 Y150.393 E279.98349
G1 X100.819 Y150.087 E280.01946
G1 X100.469 Y149.846 E280.0449
G1 X154.626 Y95.689 E284.63018
G1 X154.012 Y94.889 E284.69056
G1 X99.649 Y149.251 E289.29324
G1 X98.869 Y148.618 E289.35338
G1 X153.382 Y94.105 E293.9688
G1 X152.744 Y93.328 E294.02899
G1 X98.091 Y147.981 E298.65627
G1 X97.315 Y147.343 E298.71641
G1 X152.106 Y92.552 E303.35537
G1 X151.469 Y91.775 E303.41553
G1 X96.539 Y146.705 E308.06626
G1 X95.762 Y146.068 E308.12641
G1 X150.831 Y90.998 E312.78895
G1 X150.176 Y90.24 E312.84892
G1 X95.004 Y145.411 E317.5201
G1 X94.306 Y144.695 E317.57997
G1 X149.458 Y89.543 E322.24949
G1 X148.706 Y88.881 E322.30947
G1 X93.648 Y143.939 E326.97104
G1 X93.01 Y143.162 E327.03123
G1 X147.93 Y88.243 E331.68107
G1 X147.153 Y87.606 E331.74122
G1 X92.372 Y142.386 E336.37929
G1 X91.735 Y141.609 E336.43945
G1 X146.376 Y86.969 E341.06566
G1 X145.598 Y86.332 E341.12586
G1 X91.097 Y140.833 E345.74027
G1 X90.696 Y140.345 E345.77808
G1 X90.469 Y140.047 E345.80051
G1 X144.816 Y85.699 E350.40192
G1 X144.546 Y85.489 E350.4224
G1 X143.993 Y85.108 E350.46261
G1 X89.827 Y139.275 E355.04869
G1 X89.251 Y138.749 E355.09539
G1 X89.065 Y138.622 E355.10888
G1 X143.122 Y84.565 E359.68569
G1 X142.764 Y84.354 E359.71057
G1 X142.214 Y84.06 E359.74791
G1 X88.181 Y138.092 E364.32265
G1 X87.996 Y137.996 E364.33513
G1 X87.166 Y137.693 E364.38802
G1 X141.292 Y83.567 E368.97068
G1 X140.37 Y83.075 E369.03325
G1 X85.948 Y137.496 E373.64092
G1 X85.198 Y137.394 E373.68624
G1 X84.736 Y137.294 E373.71454
G1 X139.449 Y82.582 E378.34685
G1 X138.527 Y82.09 E378.40942
G1 X83.599 Y137.017 E383.05994
G1 X82.515 Y136.687 E383.12778
G1 X137.576 Y81.626 E387.7896
G1 X136.936 Y81.354 E387.83123
G1 X136.564 Y81.223 E387.85484
G1 X81.456 Y136.332 E392.52068
G1 X80.461 Y135.912 E392.58534
G1 X135.503 Y80.871 E397.24551
G1 X134.418 Y80.542 E397.31339
G1 X79.516 Y135.443 E401.96171
G1 X78.598 Y134.947 E402.02417
G1 X133.333 Y80.212 E406.65839
G1 X132.248 Y79.883 E406.72627
G1 X77.713 Y134.418 E411.34356
G1 X76.868 Y133.848 E411.40458
G1 X131.161 Y79.555 E416.00138
G1 X130.626 Y79.406 E416.03463
G1 X130.027 Y79.276 E416.07132
G1 X76.085 Y133.218 E420.6384
G1 X75.308 Y132.58 E420.69859
G1 X128.815 Y79.073 E425.22884
G1 X128.432 Y79.022 E425.25197
G1 X127.54 Y78.935 E425.30563
G1 X74.574 Y131.9 E429.79003
G1 X74.048 Y131.365 E429.83495
G1 X73.885 Y131.175 E429.84994
G1 X126.252 Y78.808 E434.28367
G1 X124.964 Y78.681 E434.36115
G1 X73.236 Y130.41 E438.74082
G1 X72.604 Y129.627 E438.80106
G1 X123.677 Y78.555 E443.12519
G1 X122.87 Y78.5 E443.17362
G1 X122.321 Y78.496 E443.20648
G1 X72.01 Y128.807 E447.46614
G1 X71.458 Y127.945 E447.52742
G1 X120.849 Y78.554 E451.70918
G1 X119.28 Y78.709 E451.80357
G1 X70.961 Y127.028 E455.89457
