;FLAVOR:Marlin
;TIME:10138
;Filament used: 4.13267m
;Layer height: 0.12
;MINX:78.383
;MINY:78.383
;MINZ:0.144
;MAXX:156.621
;MAXY:156.617
;MAXZ:12.714
;Generated with Cura_SteamEngine 5.2.1
M140 S50
M105
M190 S50
M104 S200
M105
M109 S200
M82 ;absolute extrusion mode
; Ender 3 Custom Start G-code
G92 E0 ; Reset Extruder
G28 ; Home all axes
G1 Z2.0 F3000 ; Move Z Axis up little to prevent scratching of Heat Bed
G1 X0.1 Y20 Z0.3 F5000.0 ; Move to start position
G1 X0.1 Y200.0 Z0.3 F1500.0 E15 ; Draw the first line
G1 X0.4 Y200.0 Z0.3 F5000.0 ; Move to side a little
G1 X0.4 Y20 Z0.3 F1500.0 E30 ; Draw the second line
G92 E0 ; Reset Extruder
G1 Z2.0 F3000 ; Move Z Axis up little to prevent scratching of Heat Bed
G1 X5 Y20 Z0.3 F5000.0 ; Move over to prevent blob squish
G92 E0
G92 E0
G1 F2700 E-5
;LAYER_COUNT:100
;LAYER:-6
M107
G0 F9000 X89.668 Y91.591 Z0.144
;TYPE:SUPPORT-INTERFACE
G1 F2700 E0
G1 F1125 X86.714 Y95.18 E0.22263
G1 X86.202 Y95.844 E0.26279
G1 X85.638 Y96.667 E0.31057
G1 X85.085 Y97.624 E0.36351
G1 X82.952 Y101.62 E0.58046
G1 X82.569 Y102.395 E0.62186
G1 X82.183 Y103.297 E0.66885
G1 X81.854 Y104.264 E0.71777
G1 X80.513 Y108.691 E0.93932
G1 X80.302 Y109.474 E0.97815
G1 X80.118 Y110.345 E1.02079
G1 X79.959 Y111.464 E1.07492
G1 X79.503 Y116.056 E1.29594
G1 X79.447 Y116.887 E1.33583
G1 X79.437 Y117.874 E1.3831
G1 X79.501 Y118.915 E1.43305
G1 X79.954 Y123.495 E1.65348
G1 X80.037 Y124.169 E1.68601
G1 X80.238 Y125.264 E1.73933
G1 X80.523 Y126.351 E1.79315
G1 X81.839 Y130.698 E2.01068
G1 X82.054 Y131.346 E2.04338
G1 X82.463 Y132.379 E2.09659
G1 X82.909 Y133.294 E2.14534
G1 X85.096 Y137.398 E2.36807
G1 X85.438 Y138.002 E2.40131
G1 X86.064 Y138.971 E2.45656
G1 X86.745 Y139.859 E2.51016
G1 X89.61 Y143.343 E2.7262
G1 X90.136 Y143.945 E2.76449
G1 X90.904 Y144.724 E2.81688
G1 X91.591 Y145.332 E2.86082
G1 X95.145 Y148.257 E3.08127
G1 X95.844 Y148.798 E3.12361
G1 X96.598 Y149.314 E3.16737
G1 X97.625 Y149.915 E3.22436
G1 X101.62 Y152.048 E3.44126
G1 X102.395 Y152.431 E3.48267
G1 X103.296 Y152.816 E3.52959
G1 X104.263 Y153.146 E3.57853
G1 X108.691 Y154.487 E3.80012
G1 X109.473 Y154.698 E3.83891
G1 X110.345 Y154.882 E3.8816
G1 X111.464 Y155.041 E3.93573
G1 X116.041 Y155.496 E4.15602
G1 X116.887 Y155.553 E4.19663
G1 X117.872 Y155.563 E4.24381
G1 X118.915 Y155.499 E4.29386
G1 X123.496 Y155.046 E4.51433
G1 X124.169 Y154.963 E4.54681
G1 X125.263 Y154.762 E4.60009
G1 X126.266 Y154.5 E4.64974
G1 X130.698 Y153.161 E4.87148
G1 X131.346 Y152.946 E4.90418
G1 X132.381 Y152.536 E4.9575
G1 X133.401 Y152.035 E5.01193
G1 X137.407 Y149.899 E5.22936
G1 X138.141 Y149.477 E5.26991
G1 X138.969 Y148.937 E5.31726
G1 X139.757 Y148.336 E5.36472
G1 X143.315 Y145.413 E5.58526
G1 X143.952 Y144.858 E5.62573
G1 X144.671 Y144.157 E5.67382
G1 X145.343 Y143.397 E5.72241
G1 X148.335 Y139.756 E5.94812
G1 X148.799 Y139.154 E5.98452
G1 X149.359 Y138.336 E6.032
G1 X149.896 Y137.409 E6.08331
G1 X152.061 Y133.357 E6.30335
G1 X152.431 Y132.606 E6.34344
G1 X152.817 Y131.704 E6.39043
G1 X153.146 Y130.737 E6.43935
G1 X154.487 Y126.309 E6.66094
G1 X154.697 Y125.534 E6.6994
G1 X154.882 Y124.656 E6.74238
G1 X155.041 Y123.537 E6.79651
G1 X155.497 Y118.944 E7.01757
G1 X155.553 Y118.107 E7.05775
G1 X155.557 Y117.686 E7.07791
G1 X155.563 Y117.121 E7.10497
G1 X155.491 Y115.987 E7.15939
G1 X155.044 Y111.487 E7.37598
G1 X154.962 Y110.831 E7.40764
G1 X154.76 Y109.731 E7.46121
G1 X154.472 Y108.636 E7.51544
G1 X153.16 Y104.302 E7.73232
G1 X152.952 Y103.674 E7.764
G1 X152.527 Y102.603 E7.81919
G1 X152.06 Y101.65 E7.87002
G1 X149.905 Y97.61 E8.08932
G1 X149.479 Y96.866 E8.13038
G1 X148.936 Y96.034 E8.17796
G1 X148.268 Y95.161 E8.23061
G1 X145.376 Y91.642 E8.44876
G1 X144.862 Y91.054 E8.48617
G1 X144.154 Y90.33 E8.53467
G1 X143.307 Y89.582 E8.58879
G1 X139.857 Y86.748 E8.80263
G1 X139.153 Y86.202 E8.8453
G1 X138.404 Y85.689 E8.88878
G1 X137.408 Y85.105 E8.94408
G1 X133.356 Y82.94 E9.16411
G1 X132.605 Y82.57 E9.20421
G1 X131.703 Y82.184 E9.2512
G1 X130.736 Y81.855 E9.30012
G1 X126.359 Y80.529 E9.51916
G1 X125.551 Y80.308 E9.55928
G1 X124.575 Y80.101 E9.60707
G1 X123.472 Y79.952 E9.66038
G1 X118.907 Y79.5 E9.88008
G1 X118.278 Y79.454 E9.91029
G1 X117.205 Y79.438 E9.96169
G1 X116.083 Y79.501 E10.01551
G1 X111.493 Y79.955 E10.23642
G1 X110.709 Y80.057 E10.27428
G1 X109.72 Y80.242 E10.32247
G1 X108.748 Y80.498 E10.37061
G1 X104.303 Y81.839 E10.59298
G1 X103.654 Y82.054 E10.62573
G1 X102.615 Y82.466 E10.67926
G1 X101.6 Y82.964 E10.73341
G1 X97.592 Y85.101 E10.95095
G1 X96.996 Y85.439 E10.98377
G1 X96.032 Y86.063 E11.03877
G1 X95.111 Y86.77 E11.09438
G1 X91.658 Y89.61 E11.30851
G1 X91.054 Y90.137 E11.3469
G1 X90.334 Y90.84 E11.39509
G1 X89.668 Y91.591 E11.44317
G0 F9000 X89.798 Y92.061
G1 F1125 X142.94 Y145.202 E15.04261
G0 F9000 X144.127 Y144.127
G1 F1125 X90.872 Y90.872 E18.64974
G0 F9000 X92.06 Y89.797
G1 F1125 X145.201 Y142.938 E22.24915
G0 F9000 X146.222 Y141.697
G1 F1125 X93.301 Y88.775 E25.83369
G0 F9000 X94.543 Y87.754
G1 F1125 X147.242 Y140.454 E29.4032
G0 F9000 X148.255 Y139.204
G1 F1125 X95.798 Y86.747 E32.95628
G0 F9000 X97.137 Y85.823
G1 F1125 X149.172 Y137.858 E36.48078
G0 F9000 X149.978 Y136.402
G1 F1125 X98.596 Y85.019 E39.96108
G0 F9000 X100.071 Y84.232
G1 F1125 X150.767 Y134.927 E43.39484
G0 F9000 X151.554 Y133.452
G1 F1125 X101.546 Y83.444 E46.78205
G0 F9000 X103.077 Y82.713
G1 F1125 X152.288 Y131.923 E50.11523
G0 F9000 X152.875 Y130.248
G1 F1125 X104.749 Y82.121 E53.37499
G0 F9000 X106.488 Y81.598
G1 F1125 X153.401 Y128.511 E56.55256
G0 F9000 X153.927 Y126.774
G1 F1125 X108.226 Y81.073 E59.64803
G0 F9000 X110.01 Y80.594
G1 F1125 X154.403 Y124.987 E62.65491
G0 F9000 X154.69 Y123.012
G1 F1125 X111.986 Y80.308 E65.54739
G0 F9000 X114.045 Y80.104
G1 F1125 X154.895 Y120.954 E68.31429
G0 F9000 X155.098 Y118.895
G1 F1125 X116.104 Y79.9 E70.95551
G0 F9000 X118.325 Y79.858
G1 F1125 X155.132 Y116.666 E73.4486
G0 F9000 X154.909 Y114.18
G1 F1125 X120.821 Y80.091 E75.75752
G0 F9000 X123.331 Y80.339
G1 F1125 X154.659 Y111.667 E77.87947
G0 F9000 X154.117 Y108.862
G1 F1125 X126.137 Y80.883 E79.77461
G0 F9000 X129.38 Y81.862
G1 F1125 X153.141 Y105.624 E81.38405
G0 F9000 X151.791 Y102.01
G1 F1125 X132.983 Y83.203 E82.65794
G1 F2700 E77.65794
G0 F9000 X133.845 Y81.994
G0 X137.934 Y84.178
G0 X137.902 Y85.859
G1 F2700 E82.65794
G1 F1125 X149.164 Y97.121 E83.42075
G1 F2700 E78.42075
G0 F9000 X150.479 Y96.46
G0 X153.462 Y102.091
G0 X154.175 Y103.981
G0 X155.775 Y109.399
G0 X156.102 Y111.369
G0 X156.621 Y116.989
G0 X156.558 Y119.035
G0 X155.963 Y124.658
G0 X155.511 Y126.605
G0 X153.838 Y132.003
G0 X153.007 Y133.845
G0 X150.306 Y138.825
G0 X149.083 Y140.527
G0 X145.508 Y144.818
G0 X144.286 Y145.96
G0 X142.629 Y147.355
G0 X141.697 Y146.223
G1 F2700 E83.42075
G1 F1125 X88.776 Y93.302 E87.00526
G0 F9000 X87.754 Y94.543
G1 F1125 X140.455 Y147.243 E90.57483
G0 F9000 X139.203 Y148.254
G1 F1125 X86.743 Y95.794 E94.12812
G0 F9000 X85.825 Y97.139
G1 F1125 X137.861 Y149.174 E97.65265
G0 F9000 X136.403 Y149.979
G1 F1125 X85.018 Y98.595 E101.13308
G0 F9000 X84.231 Y100.071
G1 F1125 X134.927 Y150.766 E104.56685
G0 F9000 X133.451 Y151.553
G1 F1125 X83.444 Y101.546 E107.95398
G0 F9000 X82.711 Y103.076
G1 F1125 X131.922 Y152.286 E111.28717
G0 F9000 X130.249 Y152.877
G1 F1125 X82.123 Y104.75 E114.54693
G0 F9000 X81.597 Y106.487
G1 F1125 X128.512 Y153.402 E117.72463
G0 F9000 X126.774 Y153.927
G1 F1125 X81.071 Y108.224 E120.82024
G0 F9000 X80.596 Y110.012
G1 F1125 X124.988 Y154.403 E123.82702
G0 F9000 X123.011 Y154.69
G1 F1125 X80.308 Y111.987 E126.71943
G0 F9000 X80.103 Y114.045
G1 F1125 X120.953 Y154.894 E129.4863
G0 F9000 X118.894 Y155.098
G1 F1125 X79.9 Y116.104 E132.12748
G0 F9000 X79.864 Y118.331
G1 F1125 X116.669 Y155.135 E134.62037
G0 F9000 X114.177 Y154.907
G1 F1125 X80.091 Y120.82 E136.92916
G0 F9000 X80.34 Y123.332
G1 F1125 X111.665 Y154.657 E139.0509
G0 F9000 X108.862 Y154.117
G1 F1125 X80.88 Y126.135 E140.94621
G0 F9000 X81.856 Y129.373
G1 F1125 X105.62 Y153.138 E142.55585
G0 F9000 X102.016 Y151.796
G1 F1125 X83.201 Y132.981 E143.83025
G1 F2700 E138.83025
G0 F9000 X82.018 Y133.891
G0 X84.17 Y137.924
G0 X85.831 Y137.874
G1 F2700 E143.83025
G1 F1125 X97.101 Y149.144 E144.59361
G1 F2700 E139.59361
G0 F300 X97.101 Y149.144 Z0.324
G0 F9000 X96.363 Y150.416
G0 X101.958 Y153.402
G0 X104.022 Y154.188
G0 X109.235 Y155.737
G0 X111.402 Y156.106
G0 X116.853 Y156.617
G0 X119.056 Y156.555
G0 X124.454 Y155.996
G0 X126.657 Y155.496
G0 X131.813 Y153.909
G0 X133.399 Y153.207
G0 X138.548 Y150.476
G0 X137.994 Y149.09
;TIME_ELAPSED:174.931180
;LAYER:-5
;TYPE:SUPPORT
G1 F2700 E144.59361
G1 F1125 X149.097 Y137.988 E145.53362
G1 F2700 E140.53362
G0 F9000 X150.204 Y138.986
G0 X149.083 Y140.527
G0 X145.508 Y144.818
G0 X144.286 Y145.96
G0 X139.683 Y149.731
G0 X138.737 Y148.609
G1 F2700 E145.53362
G1 F1125 X139.644 Y147.913 E145.60206
G1 X143.066 Y145.099 E145.8673
G1 X143.667 Y144.577 E145.91496
G1 X144.447 Y143.807 E145.98058
G1 X145.04 Y143.138 E146.0341
G1 X147.947 Y139.599 E146.30829
G1 X148.462 Y138.937 E146.3585
G1 X149.062 Y138.048 E146.42271
G1 X149.554 Y137.201 E146.48136
G1 X150.797 Y134.873 E146.63935
G1 X134.872 Y150.798 E147.98767
G1 X133.211 Y151.685 E148.1004
G1 X132.23 Y152.165 E148.16578
G1 X132 Y152.256 E148.18059
G1 X152.247 Y132.009 E149.89483
G1 X152.443 Y131.559 E149.92422
G1 X152.766 Y130.613 E149.98406
G1 X152.999 Y129.843 E150.03223
G1 X129.842 Y153 E151.99285
G1 X127.815 Y153.613 E152.11963
G1 X153.613 Y127.815 E154.30385
G1 X154.106 Y126.188 E154.40563
G1 X154.21 Y125.804 E154.42945
G1 X125.809 Y154.204 E156.83402
G1 X125.111 Y154.384 E156.87718
G1 X124.021 Y154.578 E156.94346
G1 X154.567 Y124.032 E159.52968
G1 X154.644 Y123.486 E159.56269
G1 X154.747 Y122.438 E159.62574
G1 X122.436 Y154.748 E162.36135
G1 X120.867 Y154.904 E162.45575
G1 X154.903 Y120.867 E165.3375
G1 X155.059 Y119.298 E165.4319
G1 X119.298 Y155.059 E168.45965
G1 X118.878 Y155.1 E168.48492
G1 X117.78 Y155.162 E168.55076
G1 X155.152 Y117.79 E171.71491
G1 X155.161 Y117.193 E171.75066
G1 X155.115 Y116.413 E171.79744
G1 X116.408 Y155.12 E175.07462
G1 X116.076 Y155.097 E175.09455
G1 X115.112 Y155.002 E175.15254
G1 X155.001 Y115.113 E178.5298
G1 X154.873 Y113.827 E178.60717
G1 X113.826 Y154.874 E182.08248
G1 X112.54 Y154.746 E182.15985
G1 X154.745 Y112.54 E185.73324
G1 X154.644 Y111.522 E185.79448
G1 X154.611 Y111.26 E185.81029
G1 X111.263 Y154.608 E189.48042
G1 X110.416 Y154.489 E189.53162
G1 X110.047 Y154.41 E189.55422
G1 X154.425 Y110.032 E193.31154
G1 X154.13 Y108.913 E193.38083
G1 X108.91 Y154.133 E197.20944
G1 X107.823 Y153.806 E197.2774
G1 X153.806 Y107.823 E201.17062
G1 X153.477 Y106.737 E201.23856
G1 X106.737 Y153.477 E205.19587
G1 X105.651 Y153.149 E205.26378
G1 X153.149 Y105.651 E209.28527
G1 X152.82 Y104.566 E209.35315
G1 X104.561 Y152.825 E213.43907
G1 X103.506 Y152.465 E213.50581
G1 X152.46 Y103.511 E217.65057
G1 X152.16 Y102.765 E217.69871
G1 X152.039 Y102.518 E217.71517
G1 X102.512 Y152.046 E221.90849
G1 X101.573 Y151.57 E221.97152
G1 X151.569 Y101.575 E226.20446
G1 X151.076 Y100.653 E226.26706
G1 X100.652 Y151.077 E230.53628
G1 X99.73 Y150.585 E230.59885
G1 X150.584 Y99.731 E234.90448
G1 X150.091 Y98.809 E234.96707
G1 X98.808 Y150.093 E239.30906
G1 X97.886 Y149.601 E239.37163
G1 X149.604 Y97.882 E243.75045
G1 X149.086 Y96.986 E243.81241
G1 X96.988 Y149.084 E248.22337
G1 X96.141 Y148.517 E248.28439
G1 X148.515 Y96.143 E252.71871
G1 X147.899 Y95.344 E252.77911
G1 X95.342 Y147.902 E257.22897
G1 X94.566 Y147.264 E257.28911
G1 X147.262 Y94.568 E261.7507
G1 X146.623 Y93.792 E261.81088
G1 X93.79 Y146.625 E266.28406
G1 X93.014 Y145.987 E266.34421
G1 X145.985 Y93.016 E270.82908
G1 X145.347 Y92.239 E270.88927
G1 X92.238 Y145.349 E275.38586
G1 X91.852 Y145.031 E275.4158
G1 X91.476 Y144.697 E275.44591
G1 X144.707 Y91.466 E279.95279
G1 X144.007 Y90.751 E280.0127
G1 X90.754 Y144.005 E284.52148
G1 X90.347 Y143.586 E284.55646
G1 X90.075 Y143.269 E284.58146
G1 X143.266 Y90.078 E289.08496
G1 X143.051 Y89.888 E289.10213
G1 X142.498 Y89.432 E289.14505
G1 X89.433 Y142.497 E293.63787
G1 X88.795 Y141.721 E293.69802
G1 X141.721 Y88.795 E298.17907
G1 X140.944 Y88.157 E298.23926
G1 X88.157 Y140.945 E302.7086
G1 X87.519 Y140.169 E302.76874
G1 X140.168 Y87.52 E307.22635
G1 X139.598 Y87.051 E307.27054
G1 X139.387 Y86.887 E307.28654
G1 X86.887 Y139.386 E311.73148
G1 X86.275 Y138.584 E311.79188
G1 X138.569 Y86.29 E316.21943
G1 X138.046 Y85.938 E316.25717
G1 X137.706 Y85.739 E316.28076
G1 X85.733 Y137.712 E320.68113
G1 X85.443 Y137.2 E320.71636
G1 X85.23 Y136.801 E320.74343
G1 X136.799 Y85.231 E325.10964
G1 X135.878 Y84.738 E325.17218
G1 X84.738 Y135.879 E329.50207
G1 X84.246 Y134.956 E329.56469
G1 X134.956 Y84.246 E333.85813
G1 X134.034 Y83.754 E333.92069
G1 X83.754 Y134.034 E338.17772
G1 X83.265 Y133.109 E338.24036
G1 X133.11 Y83.263 E342.46061
G1 X132.445 Y82.936 E342.50497
G1 X132.149 Y82.811 E342.52421
G1 X82.805 Y132.155 E346.70199
G1 X82.407 Y131.138 E346.76737
G1 X131.134 Y82.411 E350.89292
G1 X130.62 Y82.237 E350.9254
G1 X130.063 Y82.068 E350.96025
G1 X82.066 Y130.065 E355.02399
G1 X81.738 Y128.979 E355.09191
G1 X128.978 Y81.739 E359.09155
G1 X127.892 Y81.41 E359.15949
G1 X81.409 Y127.893 E363.09504
G1 X81.081 Y126.807 E363.16296
G1 X126.807 Y81.081 E367.03442
G1 X126.246 Y80.912 E367.06949
G1 X125.711 Y80.763 E367.10274
G1 X80.767 Y125.707 E370.90799
G1 X80.627 Y125.178 E370.94075
G1 X80.513 Y124.547 E370.97914
G1 X124.555 Y80.505 E374.70802
G1 X123.309 Y80.337 E374.78329
G1 X80.336 Y123.31 E378.42167
G1 X80.209 Y122.022 E378.49915
G1 X122.023 Y80.209 E382.03935
G1 X120.736 Y80.081 E382.11678
G1 X80.082 Y120.735 E385.55881
G1 X79.955 Y119.448 E385.63624
G1 X119.449 Y79.954 E388.98006
G1 X118.935 Y79.904 E389.01097
G1 X118.145 Y79.844 E389.05841
G1 X79.856 Y118.133 E392.3002
G1 X79.837 Y117.8 E392.32017
G1 X79.855 Y116.719 E392.3849
G1 X116.71 Y79.864 E395.50528
G1 X116.118 Y79.898 E395.54078
G1 X115.169 Y79.992 E395.59787
G1 X79.992 Y115.168 E398.57614
G1 X80.148 Y113.598 E398.6706
G1 X113.599 Y80.147 E401.50278
G1 X112.029 Y80.303 E401.59723
G1 X80.303 Y112.029 E404.28336
G1 X80.354 Y111.514 E404.31434
G1 X80.513 Y110.405 E404.38142
G1 X110.399 Y80.519 E406.91176
G1 X109.899 Y80.613 E406.94222
G1 X108.85 Y80.883 E407.00707
G1 X108.522 Y80.982 E407.02758
G1 X80.981 Y108.523 E409.35938
G1 X81.595 Y106.495 E409.48623
G1 X106.496 Y81.593 E411.59456
G1 X104.47 Y82.206 E411.72128
G1 X82.208 Y104.467 E413.60608
G1 X82.556 Y103.441 E413.67094
G1 X83.01 Y102.388 E413.7396
G1 X83.151 Y102.11 E413.75826
G1 X102.099 Y83.162 E415.36252
G1 X101.791 Y83.313 E415.38305
G1 X99.098 Y84.749 E415.56577
G1 X84.753 Y99.094 E416.78031
G1 X85.457 Y97.775 E416.86982
G1 X85.977 Y96.878 E416.93189
G1 X86.613 Y95.957 E416.9989
G1 X87.046 Y95.402 E417.04104
G1 X89.958 Y91.862 E417.31547
G1 X90.681 Y91.056 E417.38029
G1 X91.399 Y90.359 E417.4402
G1 X91.905 Y89.922 E417.48023
G1 F2700 E412.48023
G0 F9000 X90.975 Y88.793
G0 X94.385 Y85.988
G0 X95.315 Y87.117
G1 F2700 E417.48023
G1 F1125 X87.119 Y95.313 E418.17415
G1 F2700 E413.17415
G0 F300 X87.119 Y95.313 Z0.444
G0 F9000 X85.907 Y94.485
G0 X84.691 Y96.178
G0 X81.598 Y101.958
G0 X80.812 Y104.022
G0 X79.263 Y109.235
G0 X78.894 Y111.402
G0 X78.383 Y116.853
G0 X78.442 Y119.033
G0 X79.004 Y124.454
G0 X79.501 Y126.646
G0 X81.091 Y131.813
G0 X81.958 Y133.772
G0 X84.62 Y138.705
G0 X85.667 Y140.179
G0 X89.238 Y144.543
G0 X90.347 Y143.586
;TIME_ELAPSED:423.485765
;LAYER:-4
;TYPE:SUPPORT-INTERFACE
G1 F2700 E418.17415
G1 F1500 X91.102 Y144.365 E418.1958
G1 X91.875 Y145.05 E418.21641
G1 X89.948 Y143.122 E418.27081
G1 X87.324 Y139.933 E418.35323
G1 X95.063 Y147.672 E418.57164
G1 X95.43 Y147.974 E418.58112
G1 X96.073 Y148.469 E418.59731
G1 X96.945 Y149.058 E418.61831
G1 X97.113 Y149.156 E418.6222
G1 X85.813 Y137.856 E418.94111
G1 X85.443 Y137.2 E418.95614
G1 X85.122 Y136.6 E418.96972
G1 X98.393 Y149.871 E419.34425
G1 X99.608 Y150.519 E419.37173
G1 X84.475 Y135.386 E419.79882
G1 X83.828 Y134.174 E419.82623
G1 X100.822 Y151.168 E420.30584
G1 X102.022 Y151.802 E420.33293
G1 X83.203 Y132.983 E420.86404
